packages/core/src/svgs/tokens/branded/XTM.svg

<svg width="24" height="24" viewBox="0 0 24 24" fill="none" xmlns="http://www.w3.org/2000/svg">
<path d="M3.02442 15.36V7.85007C3.02478 7.52445 3.1139 7.2051 3.2822 6.92635C3.4505 6.6476 3.69162 6.42002 3.9796 6.26806L11.233 2.4653C11.5074 2.32152 11.8145 2.25142 12.1243 2.26189C12.434 2.27235 12.7358 2.36301 12.9999 2.525L20.0742 6.84117C20.3373 7.00137 20.5548 7.22674 20.7053 7.49551C20.8559 7.76427 20.9346 8.06733 20.9338 8.37541V15.378C20.9334 15.6704 20.8612 15.9582 20.7239 16.2162C20.5865 16.4743 20.388 16.6948 20.1458 16.8584L13.1193 21.6283C12.8262 21.8266 12.4811 21.9334 12.1273 21.9355C11.7734 21.9376 11.4269 21.8349 11.1314 21.6403L3.83632 16.8644C3.58632 16.7013 3.38109 16.4782 3.2393 16.2155C3.09749 15.9526 3.02364 15.6587 3.02442 15.36Z" fill="url(#paint0_linear_364_1692)"/>
<path d="M14.3668 20.8046C13.7518 21.2165 12.7548 22.0403 11.9788 21.9985C11.2445 21.9627 10.4863 21.1867 9.88938 20.8046C9.949 20.7151 10.1879 20.5061 10.1879 19.9091V12.1484L8.48643 13.0439C7.97303 13.2409 6.8328 13.4618 6.33729 12.7454C5.72838 11.8499 6.03881 10.656 6.64773 10.3575C7.00593 10.1783 8.18197 9.3605 9.19087 8.66203C9.56692 8.39936 9.90721 8.15461 10.1879 7.96954C10.4923 7.77253 11.3818 7.37256 11.9788 7.37256C12.5757 7.37256 13.4652 7.77253 13.7697 7.96954L17.0531 10.059C17.5605 10.3575 18.3963 11.253 17.6621 12.4469C16.9277 13.6408 15.5129 13.1453 14.904 12.7454L13.7697 12.1484V19.9091C13.7697 20.5061 14.2174 20.6733 14.3668 20.8046Z" fill="white"/>
<path d="M3.62141 15.3722V11.4919C3.62141 11.4126 3.58995 11.3367 3.53397 11.2808C3.478 11.2248 3.40207 11.1934 3.32291 11.1934C3.24375 11.1934 3.16782 11.2248 3.11185 11.2808C3.05587 11.3367 3.02441 11.4126 3.02441 11.4919V15.3722C3.02462 15.6698 3.09897 15.9626 3.24071 16.2242C3.38246 16.4858 3.58715 16.7079 3.83631 16.8706L8.83303 20.1541C8.90033 20.1967 8.98184 20.2111 9.05965 20.1937C9.13747 20.1764 9.20525 20.1287 9.24801 20.0615C9.29063 19.9942 9.30498 19.9127 9.28757 19.8348C9.2703 19.7571 9.22266 19.6894 9.15541 19.6466L4.15868 16.3751C3.99275 16.2659 3.85672 16.1169 3.76289 15.9418C3.66907 15.7667 3.62045 15.5709 3.62141 15.3722Z" fill="url(#paint1_linear_364_1692)"/>
<path d="M20.6772 15.1094C20.7563 15.1094 20.8322 15.078 20.8882 15.0221C20.9442 14.9661 20.9756 14.8902 20.9756 14.8109V8.11287C20.9754 7.8058 20.8962 7.50395 20.7456 7.23632C20.595 6.9687 20.3783 6.74426 20.116 6.58459L13.0357 2.26246C12.7723 2.10154 12.4717 2.01149 12.1631 2.00103C11.8545 1.99057 11.5485 2.06006 11.2748 2.20276L6.17052 4.88321C6.13108 4.89818 6.09527 4.92134 6.06545 4.95117C6.03562 4.98099 6.01246 5.0168 5.99748 5.05624C5.9825 5.09566 5.97605 5.13782 5.97855 5.17993C5.98105 5.22203 5.99244 5.26313 6.01199 5.30051C6.03153 5.33789 6.05876 5.3707 6.09191 5.39679C6.12505 5.42288 6.16336 5.44164 6.20428 5.45185C6.24521 5.46206 6.28783 5.46348 6.32934 5.45602C6.37085 5.44855 6.41032 5.43236 6.44513 5.40854L11.5493 2.73407C11.7318 2.63799 11.936 2.59078 12.142 2.59706C12.3482 2.60333 12.549 2.66288 12.7254 2.76988L19.8055 7.09203C19.9799 7.19813 20.1241 7.34712 20.2244 7.52478C20.3247 7.70245 20.3779 7.90287 20.3787 8.10689V14.8109C20.3787 14.9781 20.5101 15.1094 20.6772 15.1094Z" fill="#ED83B3"/>
<path d="M13.7995 3.06219C13.8197 3.02833 13.8465 2.99883 13.8782 2.97537C13.91 2.95191 13.9461 2.93498 13.9844 2.92554C14.0227 2.9161 14.0624 2.91434 14.1014 2.92039C14.1404 2.92642 14.1778 2.94013 14.2114 2.96072L19.0111 5.90382C19.0714 5.9481 19.1129 6.0134 19.1274 6.08681C19.1418 6.16022 19.1281 6.23637 19.0891 6.30019C19.0501 6.364 18.9885 6.41083 18.9165 6.4314C18.8447 6.45198 18.7676 6.44479 18.7008 6.41126L13.9011 3.46814C13.8342 3.4273 13.7861 3.36186 13.7672 3.28593C13.7483 3.21 13.7598 3.12965 13.7995 3.06219Z" fill="#FFD6E9"/>
<path d="M9.51908 8.10665C9.56839 8.1606 9.63567 8.19464 9.70824 8.20235C9.78081 8.21005 9.85366 8.19087 9.91314 8.14844L10.1759 7.96935C10.4744 7.77234 11.3698 7.37237 11.9668 7.37237C12.5638 7.37237 13.4472 7.77234 13.7577 7.96935L17.0352 10.0588C17.5426 10.3573 18.3784 11.2528 17.644 12.4467L17.5903 12.5303C17.4829 12.6915 17.5067 12.9302 17.6798 13.0258C17.7992 13.0855 17.9366 13.0616 18.0142 12.9661L18.1515 12.7572C18.629 11.993 18.6112 11.2646 18.3544 10.6736C18.1385 10.2067 17.787 9.8157 17.3455 9.55131L14.08 7.46191C13.4356 7.07829 12.7135 6.84372 11.9668 6.77539C11.2174 6.84426 10.493 7.08095 9.84754 7.46788L9.83556 7.47386L9.57285 7.65891C9.53705 7.68241 9.50668 7.71334 9.48384 7.74961C9.46099 7.78588 9.44623 7.82665 9.44065 7.86913C9.43494 7.91161 9.43842 7.95482 9.45096 7.9958C9.4635 8.03678 9.48467 8.0746 9.51323 8.10665H9.51908Z" fill="#FC81B8"/>
<path d="M13.5661 7.50994C13.5867 7.47576 13.6142 7.44607 13.6466 7.42267C13.6791 7.39928 13.7159 7.38262 13.7547 7.37372C13.7937 7.36481 13.8341 7.36382 13.8735 7.37081C13.9128 7.3778 13.9504 7.39264 13.984 7.41442L16.36 8.91284C16.3932 8.93362 16.4221 8.96076 16.4449 8.9927C16.4678 9.02464 16.4841 9.06077 16.493 9.09902C16.5019 9.13727 16.5032 9.17689 16.4966 9.21562C16.4902 9.25436 16.4763 9.29144 16.4555 9.32476C16.4346 9.35808 16.4076 9.38693 16.3756 9.40978C16.3437 9.43262 16.3076 9.44892 16.2693 9.45783C16.231 9.46675 16.1914 9.468 16.1527 9.46145C16.114 9.45505 16.0769 9.44112 16.0435 9.42022L13.6557 7.92185C13.622 7.90063 13.5929 7.87289 13.57 7.84025C13.5472 7.80761 13.5311 7.77073 13.5228 7.73178C13.5144 7.69285 13.5139 7.65262 13.5214 7.6135C13.5288 7.57438 13.544 7.53713 13.5661 7.50396V7.50994Z" fill="#FDD2E0"/>
<defs>
<linearGradient id="paint0_linear_364_1692" x1="16.41" y1="3.55492" x2="7.31955" y2="19.6552" gradientUnits="userSpaceOnUse">
<stop stop-color="#F2445B"/>
<stop offset="1" stop-color="#A023B1"/>
</linearGradient>
<linearGradient id="paint1_linear_364_1692" x1="1.31534" y1="4.96925" x2="16.041" y2="24.0221" gradientUnits="userSpaceOnUse">
<stop stop-color="#7A1981"/>
<stop offset="0.63" stop-color="#BD27C1"/>
<stop offset="1" stop-color="#600A67"/>
</linearGradient>
</defs>
</svg>

<svg xmlns="http://www.w3.org/2000/svg" width="24" height="24" fill="none" viewBox="0 0 24 24">
    <path fill="url(#XTM__a)" d="M3.024 15.36V7.85a1.79 1.79 0 0 1 .956-1.582l7.253-3.803a1.79 1.79 0 0 1 1.767.06l7.074 4.316a1.79 1.79 0 0 1 .86 1.534v7.003a1.79 1.79 0 0 1-.788 1.48l-7.027 4.77a1.79 1.79 0 0 1-1.988.012l-7.295-4.776a1.79 1.79 0 0 1-.812-1.504"/>
    <path fill="#fff" d="M14.367 20.805c-.615.412-1.612 1.235-2.388 1.194-.734-.036-1.493-.812-2.09-1.194.06-.09.299-.299.299-.896v-7.76l-1.702.895c-.513.197-1.653.418-2.149-.299-.609-.895-.298-2.089.31-2.387.359-.18 1.535-.998 2.544-1.696.376-.263.716-.507.997-.692.304-.197 1.194-.597 1.79-.597.598 0 1.487.4 1.792.597l3.283 2.089c.508.299 1.343 1.194.61 2.388-.735 1.194-2.15.698-2.759.298l-1.134-.597v7.761c0 .597.447.764.597.896"/>
    <path fill="url(#XTM__b)" d="M3.621 15.372v-3.88a.298.298 0 1 0-.597 0v3.88a1.79 1.79 0 0 0 .812 1.499l4.997 3.283a.301.301 0 0 0 .322-.507L4.16 16.375a1.2 1.2 0 0 1-.538-1.003"/>
    <path fill="#ED83B3" d="M20.677 15.11a.3.3 0 0 0 .299-.3V8.114a1.79 1.79 0 0 0-.86-1.528l-7.08-4.323a1.79 1.79 0 0 0-1.761-.06L6.17 4.884a.298.298 0 1 0 .274.526l5.104-2.675a1.2 1.2 0 0 1 1.176.036l7.08 4.322a1.19 1.19 0 0 1 .574 1.015v6.704c0 .167.131.298.298.298"/>
    <path fill="#FFD6E9" d="M13.8 3.062a.3.3 0 0 1 .411-.101l4.8 2.943a.299.299 0 0 1-.31.507l-4.8-2.943a.3.3 0 0 1-.101-.406"/>
    <path fill="#FC81B8" d="M9.52 8.107a.3.3 0 0 0 .393.041l.263-.179c.298-.197 1.194-.597 1.79-.597.598 0 1.481.4 1.792.597l3.277 2.09c.508.298 1.343 1.194.609 2.388l-.054.083c-.107.162-.083.4.09.496.12.06.257.036.334-.06l.137-.209c.478-.764.46-1.492.203-2.083a2.56 2.56 0 0 0-1.008-1.123l-3.266-2.09a5 5 0 0 0-2.113-.686 5 5 0 0 0-2.12.693l-.011.006-.263.185a.3.3 0 0 0-.06.448z"/>
    <path fill="#FDD2E0" d="M13.566 7.51a.297.297 0 0 1 .418-.096l2.376 1.499a.3.3 0 0 1-.316.507l-2.388-1.498a.3.3 0 0 1-.09-.418z"/>
    <defs>
        <linearGradient id="XTM__a" x1="16.41" x2="7.32" y1="3.555" y2="19.655" gradientUnits="userSpaceOnUse">
            <stop stop-color="#F2445B"/>
            <stop offset="1" stop-color="#A023B1"/>
        </linearGradient>
        <linearGradient id="XTM__b" x1="1.315" x2="16.041" y1="4.969" y2="24.022" gradientUnits="userSpaceOnUse">
            <stop stop-color="#7A1981"/>
            <stop offset=".63" stop-color="#BD27C1"/>
            <stop offset="1" stop-color="#600A67"/>
        </linearGradient>
    </defs>
</svg>
